X:1
T:Hal An Tow
M:4/4
L:1/8
K:C
 G,2| C2C-D C2E-F| G2G-A G2A-B| c2 G2 A2G-F| G4 C2 G,2| C2C-D C2E-F|\
 G2G-A G2A-B| c2 G2 A2G-F| E4 C2 G2| A2 A2 A2G-F|E-FG-A G2A-B| c2 G2 A2G-F|\
 E4 C2||
